X:497
T:Napoleon crossing the Rhine
T:Bonaparte crossing the Rhine
T:Bonaparte's march
R:Hornpipe
O:Ireland
S:My arrangement from various sources
B:O'Neill's 1824
B:Roche 2 n231
Z:Transcription, arrangement, chords:Mike Long
M:4/4
L:1/8
K:G
EG|\
"Am"A2AB AGEG|"C"cdec "G"d2eg|"Am"aged cAGE|"G"G2GA G2EG|\
"Am"A2AB AGEG|
"C"cdec "G"d2eg|"Am"aged "G"cABG|"Am"A2AB A2:|\
|:eg|\
"Am"aged cdef|"G"g2ga g2eg|
"Am"aged "C"cAGE|"G"G2GA G2EG|\
"Am"A2AB AGEG|"C"cdec "G"d2eg|"Am"aged "G"cABG|"Am"A2AB A2:|
